gnomExtensions/.local/share/gnome-shell/extensions/Bluetooth-Battery-Meter@maniacx.github.com/icons/hicolor/scalable/actions/bbm-enhanced-device-symbolic.svg

<svg height="16" viewBox="0 0 16 16" width="16" xmlns="http://www.w3.org/2000/svg"><path d="m7.9980469 0c-1.1733745.00013287-2.3480212.01783088-2.4960938.05273438-.5112063.12050099-.9349084.48661649-1.1328125.97656252-.0712249.176329-.0724899.1997314-.0878906 1.7089843l-.015625 1.5292969-1.53125.015625c-1.5092535.015401-1.5326554.0166656-1.7089844.0878907-.3549036.1433559-.68222175.4421286-.84960935.7753906-.1798395.358052-.17759015.3125643-.16796875 3.4882812.0088202 2.9113994.0096371 2.9122504.078125 3.0917964.2214056.580437.73166733.986334 1.3261719 1.054688.1429567.016437.8471625.031119 1.5644531.03125h1.3046875v.933594c0 .847022.0055703.952401.0625 1.136718.1603451.519138.6083707.936037 1.1464844 1.066407.2749042.066601 4.7183856.068349 4.9999996.001953.512204-.120763.939455-.4882 1.136719-.976563.071225-.176329.07249-.19973.087891-1.708984l.015625-1.53125 1.53125-.015625c1.509254-.015401 1.532655-.016667 1.708984-.087891.357171-.144273.679057-.439475.849609-.779297.176416-.351504.173327-.310646.173829-3.3847651.000442-2.7091642-.001931-2.8391704-.060547-3.0683594-.077573-.303306-.18425-.4869685-.421875-.7265625-.254038-.256143-.569639-.4099989-.927735-.4511719-.142957-.016436-.847163-.0291658-1.564453-.0292969h-1.304687v-.9335937c0-.847022-.005571-.9543539-.0625-1.1386719-.162576-.52635689-.609282-.93653822-1.160156-1.06640622-.147912-.03487001-1.3207666-.05286725-2.4941411-.05273438zm-2.2363281 1.0664062h2.2382812 2.238281l.136719.0722657c.085597.045156.165435.1190825.208984.1953125l.06836.1230468-.00586 2.8417969-.007812 2.84375-.076172.1054688c-.041252.057839-.132703.1301277-.203125.1621093-.121076.0549863-.250713.057945-2.4082031.0585938-2.4863046.0007475-2.4570236-.0008081-2.8261719.1816406-.2099239.1037538-.5490427.4356573-.6640625.6503906-.1739794.3248059-.1796875.3981015-.1796875 1.9726568v1.445312h-1.4316406-1.4335938l-.125-.089844c-.2402315-.174022-.2265625-.007788-.2265625-3.1054685v-2.7578125l.0703125-.1386719c.0463102-.091752.112983-.1629285.1953125-.2089843l.125-.0703126 3.5371094-.0019531h3.5371094v-.53125-.53125h-1.59375-1.5917969v-1.4121093c.0005108-1.4050232.0008322-1.4148615.0703125-1.5390626.0460562-.082329.1172328-.1490026.2089844-.1953124zm1.0507812.8398438a.7212435.7212435 0 0 0 -.7109375.7285156.7212435.7212435 0 0 0 .7246094.7148438.7212435.7212435 0 0 0 .71875-.7207032l-.0019531-.0136718a.7212435.7212435 0 0 0 -.7304688-.7089844zm4.902344 2.3769531h1.433594 1.43164l.125.0917969c.24024.174029.228516.0078354.228516 3.1074219v2.7578121l-.072266.138672c-.045278.085827-.118877.163534-.195312.207032l-.123047.070312h-3.53711-3.5390621v.53125.53125h1.59375 1.5937501l-.001953 1.414062c-.000511 1.404883-.000968 1.413298-.070313 1.535157-.043496.076435-.121204.150034-.207031.195312l-.136719.072266h-2.2402341-2.2382813l-.1386718-.072266c-.0855969-.045156-.1634828-.119082-.2070313-.195312l-.0703125-.123047.0078125-2.841797.0078125-2.8417969.0742188-.1054687c.0412519-.057839.1327028-.1320806.203125-.1640625.121076-.054986.2526661-.057945 2.4101562-.0585938 2.486304-.0007475 2.457024.0008082 2.826172-.1816406.209924-.1037537.547089-.4337042.662109-.6484375.173979-.3248057.179688-.3981022.179688-1.9726562zm-2.5468752 8.4843749a.7212435.7212435 0 0 0 -.7128907.726563.7212435.7212435 0 0 0 .7246094.714843.7212435.7212435 0 0 0 .71875-.720703v-.013672a.7212435.7212435 0 0 0 -.7304687-.707031z" fill="#2e3436"/></svg>

<?xml version="1.0" encoding="UTF-8"?>
<svg height="16px" viewBox="0 0 16 16" width="16px" xmlns="http://www.w3.org/2000/svg">
  <path d="M 7.9980469 0 C 6.8246724 0.000132875 5.6500257 0.017830875 5.5019531 0.052734375 C 4.9907468 0.17323537 4.5670447 0.53935087 4.3691406 1.0292969 C 4.2979157 1.2056259 4.2966507 1.2290283 4.28125 2.7382812 L 4.265625 4.2675781 L 2.734375 4.2832031 C 1.2251215 4.2986041 1.2017196 4.2998687 1.0253906 4.3710938 C 0.670487 4.5144497 0.34316885 4.8132224 0.17578125 5.1464844 C -0.00405825 5.5045364 -0.0018089041 5.4590487 0.0078125 8.6347656 C 0.0166327 11.546165 0.0174496 11.547016 0.0859375 11.726562 C 0.3073431 12.306999 0.81760483 12.712896 1.4121094 12.78125 C 1.5550661 12.797687 2.2592719 12.812369 2.9765625 12.8125 L 4.28125 12.8125 L 4.28125 13.746094 C 4.28125 14.593116 4.2868203 14.698495 4.34375 14.882812 C 4.5040951 15.40195 4.9521207 15.818849 5.4902344 15.949219 C 5.7651386 16.01582 10.20862 16.017568 10.490234 15.951172 C 11.002438 15.830409 11.429689 15.462972 11.626953 14.974609 C 11.698178 14.79828 11.699443 14.774879 11.714844 13.265625 L 11.730469 11.734375 L 13.261719 11.71875 C 14.770973 11.703349 14.794374 11.702083 14.970703 11.630859 C 15.327874 11.486586 15.64976 11.191384 15.820312 10.851562 C 15.996728 10.500058 15.993639 10.540916 15.994141 7.4667969 C 15.994583 4.7576327 15.99221 4.6276265 15.933594 4.3984375 C 15.856021 4.0951315 15.749344 3.911469 15.511719 3.671875 C 15.257681 3.415732 14.94208 3.2618761 14.583984 3.2207031 C 14.441027 3.2042671 13.736821 3.1915373 13.019531 3.1914062 L 11.714844 3.1914062 L 11.714844 2.2578125 C 11.714844 1.4107905 11.709273 1.3034586 11.652344 1.1191406 C 11.489768 0.59278371 11.043062 0.18260238 10.492188 0.052734375 C 10.344276 0.017864375 9.1714214 -0.000132875 7.9980469 0 z M 5.7617188 1.0664062 L 8 1.0664062 L 10.238281 1.0664062 L 10.375 1.1386719 C 10.460597 1.1838279 10.540435 1.2577544 10.583984 1.3339844 L 10.652344 1.4570312 L 10.646484 4.2988281 L 10.638672 7.1425781 L 10.5625 7.2480469 C 10.521248 7.3058859 10.429797 7.3781746 10.359375 7.4101562 C 10.238299 7.4651425 10.108662 7.4681012 7.9511719 7.46875 C 5.4648673 7.4694975 5.4941483 7.4679419 5.125 7.6503906 C 4.9150761 7.7541444 4.5759573 8.0860479 4.4609375 8.3007812 C 4.2869581 8.6255871 4.28125 8.6988827 4.28125 10.273438 L 4.28125 11.71875 L 2.8496094 11.71875 L 1.4160156 11.71875 L 1.2910156 11.628906 C 1.0507841 11.454884 1.0644531 11.621118 1.0644531 8.5234375 L 1.0644531 5.765625 L 1.1347656 5.6269531 C 1.1810758 5.5352011 1.2477486 5.4640246 1.3300781 5.4179688 L 1.4550781 5.3476562 L 4.9921875 5.3457031 L 8.5292969 5.3457031 L 8.5292969 4.8144531 L 8.5292969 4.2832031 L 6.9355469 4.2832031 L 5.34375 4.2832031 L 5.34375 2.8710938 C 5.3442608 1.4660706 5.3445822 1.4562323 5.4140625 1.3320312 C 5.4601187 1.2497022 5.5312953 1.1830286 5.6230469 1.1367188 L 5.7617188 1.0664062 z M 6.8125 1.90625 A 0.7212435 0.7212435 0 0 0 6.1015625 2.6347656 A 0.7212435 0.7212435 0 0 0 6.8261719 3.3496094 A 0.7212435 0.7212435 0 0 0 7.5449219 2.6289062 L 7.5429688 2.6152344 A 0.7212435 0.7212435 0 0 0 6.8125 1.90625 z M 11.714844 4.2832031 L 13.148438 4.2832031 L 14.580078 4.2832031 L 14.705078 4.375 C 14.945318 4.549029 14.933594 4.3828354 14.933594 7.4824219 L 14.933594 10.240234 L 14.861328 10.378906 C 14.81605 10.464733 14.742451 10.54244 14.666016 10.585938 L 14.542969 10.65625 L 11.005859 10.65625 L 7.4667969 10.65625 L 7.4667969 11.1875 L 7.4667969 11.71875 L 9.0605469 11.71875 L 10.654297 11.71875 L 10.652344 13.132812 C 10.651833 14.537695 10.651376 14.54611 10.582031 14.667969 C 10.538535 14.744404 10.460827 14.818003 10.375 14.863281 L 10.238281 14.935547 L 7.9980469 14.935547 L 5.7597656 14.935547 L 5.6210938 14.863281 C 5.5354969 14.818125 5.457611 14.744199 5.4140625 14.667969 L 5.34375 14.544922 L 5.3515625 11.703125 L 5.359375 8.8613281 L 5.4335938 8.7558594 C 5.4748457 8.6980204 5.5662966 8.6237788 5.6367188 8.5917969 C 5.7577948 8.5368109 5.8893849 8.5338519 8.046875 8.5332031 C 10.533179 8.5324556 10.503899 8.5340113 10.873047 8.3515625 C 11.082971 8.2478088 11.420136 7.9178583 11.535156 7.703125 C 11.709135 7.3783193 11.714844 7.3050228 11.714844 5.7304688 L 11.714844 4.2832031 z M 9.1679688 12.767578 A 0.7212435 0.7212435 0 0 0 8.4550781 13.494141 A 0.7212435 0.7212435 0 0 0 9.1796875 14.208984 A 0.7212435 0.7212435 0 0 0 9.8984375 13.488281 L 9.8984375 13.474609 A 0.7212435 0.7212435 0 0 0 9.1679688 12.767578 z" fill="#2e3436"/>
</svg>
